styles/3/Numix-Circle/48x48/apps/shares.svg

<svg xmlns="http://www.w3.org/2000/svg" viewBox="0 0 48 48">
 <defs>
  <clipPath id="clipPath-428684738">
   <g transform="translate(0,-1004.3622)">
    <path d="m -24 13 c 0 1.105 -0.672 2 -1.5 2 -0.828 0 -1.5 -0.895 -1.5 -2 0 -1.105 0.672 -2 1.5 -2 0.828 0 1.5 0.895 1.5 2 z" transform="matrix(15.333333,0,0,11.5,414.99999,878.8622)" style="fill:#1890d0"/>
   </g>
  </clipPath>
  <linearGradient id="linearGradient3886" x1="1" x2="47" gradientUnits="userSpaceOnUse">
   <stop style="stop-color:#bc4b00;stop-opacity:1"/>
   <stop offset="1" style="stop-color:#d05300;stop-opacity:1"/>
  </linearGradient>
 </defs>
 <g>
  <path d="m 36.31 5 c 5.859 4.062 9.688 10.831 9.688 18.5 c 0 12.426 -10.07 22.5 -22.5 22.5 c -7.669 0 -14.438 -3.828 -18.5 -9.688 c 1.037 1.822 2.306 3.499 3.781 4.969 c 4.085 3.712 9.514 5.969 15.469 5.969 c 12.703 0 23 -10.298 23 -23 c 0 -5.954 -2.256 -11.384 -5.969 -15.469 c -1.469 -1.475 -3.147 -2.744 -4.969 -3.781 z m 4.969 3.781 c 3.854 4.113 6.219 9.637 6.219 15.719 c 0 12.703 -10.297 23 -23 23 c -6.081 0 -11.606 -2.364 -15.719 -6.219 c 4.16 4.144 9.883 6.719 16.219 6.719 c 12.703 0 23 -10.298 23 -23 c 0 -6.335 -2.575 -12.06 -6.719 -16.219 z" style="opacity:0.05"/>
  <path d="m 41.28 8.781 c 3.712 4.085 5.969 9.514 5.969 15.469 c 0 12.703 -10.297 23 -23 23 c -5.954 0 -11.384 -2.256 -15.469 -5.969 c 4.113 3.854 9.637 6.219 15.719 6.219 c 12.703 0 23 -10.298 23 -23 c 0 -6.081 -2.364 -11.606 -6.219 -15.719 z" style="opacity:0.1"/>
  <path d="m 31.25 2.375 c 8.615 3.154 14.75 11.417 14.75 21.13 c 0 12.426 -10.07 22.5 -22.5 22.5 c -9.708 0 -17.971 -6.135 -21.12 -14.75 a 23 23 0 0 0 44.875 -7 a 23 23 0 0 0 -16 -21.875 z" style="opacity:0.2"/>
 </g>
 <g transform="matrix(0,-1,1,0,0,48)" style="fill:url(#linearGradient3886);fill-opacity:1">
  <path d="M 24,1 C 36.703,1 47,11.297 47,24 47,36.703 36.703,47 24,47 11.297,47 1,36.703 1,24 1,11.297 11.297,1 24,1 z"/>
 </g>
 <g>
  <path d="m 40.03 7.531 c 3.712 4.084 5.969 9.514 5.969 15.469 0 12.703 -10.297 23 -23 23 c -5.954 0 -11.384 -2.256 -15.469 -5.969 4.178 4.291 10.01 6.969 16.469 6.969 c 12.703 0 23 -10.298 23 -23 0 -6.462 -2.677 -12.291 -6.969 -16.469 z" style="opacity:0.1"/>
 </g>
 <g>
  <g style="clip-path:url(#clipPath-428684738)">
   <g transform="translate(1,1)">
    <g style="opacity:0.1">
     <!-- color: #7373a1 -->
     <g>
      <path d="m 18.273 15 c -0.775 0 -1.077 0.419 -1.195 1 l -3.078 0 l 0 4 l -2 0 l 2 14 l 22 0 l 2 -14 l -2 0 l 0 -4 l -12.08 0 c -0.118 -0.581 -0.417 -1 -1.193 -1 l -4.453 0 z" transform="translate(-1,-1)" style="fill:#000;fill-opacity:1;stroke:none;fill-rule:nonzero"/>
     </g>
    </g>
   </g>
  </g>
 </g>
 <g>
  <path d="m 13 15 22 0 0 9 -22 0 m 0 -9" style="fill:#ea8e36;fill-opacity:1;stroke:none;fill-rule:nonzero"/>
  <path d="M 16,16.25 C 16,15.125 16,14 17.273,14 l 4.453,0 c 1.273,0 1.273,1.121 1.273,2.25 m -7,0" style="fill:#ea8e36;fill-opacity:1;stroke:none;fill-rule:nonzero"/>
  <path d="m 15 16 17 0 0 12 -17 0 m 0 -12" style="fill:#d6d6d7;fill-opacity:1;stroke:none;fill-rule:nonzero"/>
  <path d="m 16 17 18 0 0 4 -18 0 m 0 -4" style="fill:#95959c;fill-opacity:1;stroke:none;fill-rule:nonzero"/>
  <path d="m 17 18 16 0 0 12 -16 0 m 0 -12" style="fill:#f9f9f9;fill-opacity:1;stroke:none;fill-rule:nonzero"/>
  <path d="m 11,19 26,0 -2,14 -22,0 M 11,19" style="fill:#f2b962;fill-opacity:1;stroke:none;fill-rule:nonzero"/>
  <path d="m 27.75 20 c -1.238 0 -2.25 1.01 -2.25 2.25 0 0.093 0.019 0.191 0.031 0.281 l -3.719 1.844 c -0.41 -0.395 -0.953 -0.625 -1.563 -0.625 -1.234 0 -2.25 1.01 -2.25 2.25 c 0 1.238 1.012 2.25 2.25 2.25 0.613 0 1.157 -0.23 1.563 -0.625 l 3.719 1.844 c -0.011 0.09 -0.031 0.187 -0.031 0.281 0 1.238 1.01 2.25 2.25 2.25 1.238 0 2.25 -1.01 2.25 -2.25 0 -1.238 -1.01 -2.25 -2.25 -2.25 c -0.606 0 -1.157 0.234 -1.563 0.625 l -3.719 -1.844 c 0.003 -0.09 0.031 -0.187 0.031 -0.281 c 0 -0.093 -0.019 -0.191 -0.031 -0.281 l 3.719 -1.844 c 0.407 0.391 0.957 0.625 1.563 0.625 1.238 0 2.25 -1.01 2.25 -2.25 0 -1.238 -1.01 -2.25 -2.25 -2.25" style="fill:#000;fill-opacity:0.329;stroke:none;fill-rule:nonzero"/>
 </g>
</svg>

<?xml version="1.0" encoding="UTF-8" standalone="no"?>
<svg
   xmlns:dc="http://purl.org/dc/elements/1.1/"
   xmlns:cc="http://creativecommons.org/ns#"
   xmlns:rdf="http://www.w3.org/1999/02/22-rdf-syntax-ns#"
   xmlns:svg="http://www.w3.org/2000/svg"
   xmlns="http://www.w3.org/2000/svg"
   xmlns:xlink="http://www.w3.org/1999/xlink"
   xmlns:sodipodi="http://sodipodi.sourceforge.net/DTD/sodipodi-0.dtd"
   xmlns:inkscape="http://www.inkscape.org/namespaces/inkscape"
   viewBox="0 0 48 48"
   id="svg2"
   version="1.1"
   inkscape:version="0.91 r"
   width="100%"
   height="100%"
   sodipodi:docname="shares.svg">
  <metadata
     id="metadata65">
    <rdf:RDF>
      <cc:Work
         rdf:about="">
        <dc:format>image/svg+xml</dc:format>
        <dc:type
           rdf:resource="http://purl.org/dc/dcmitype/StillImage" />
      </cc:Work>
    </rdf:RDF>
  </metadata>
  <sodipodi:namedview
     pagecolor="#ffffff"
     bordercolor="#666666"
     borderopacity="1"
     objecttolerance="10"
     gridtolerance="10"
     guidetolerance="10"
     inkscape:pageopacity="0"
     inkscape:pageshadow="2"
     inkscape:window-width="1280"
     inkscape:window-height="998"
     id="namedview63"
     showgrid="false"
     inkscape:zoom="12.677553"
     inkscape:cx="25.284717"
     inkscape:cy="28.796845"
     inkscape:window-x="0"
     inkscape:window-y="0"
     inkscape:window-maximized="1"
     inkscape:current-layer="svg2" />
  <defs
     id="defs4">
    <linearGradient
       id="linearGradient3880">
      <stop
         style="stop-color:#bc4b00;stop-opacity:1;"
         offset="0"
         id="stop3882" />
      <stop
         style="stop-color:#d05300;stop-opacity:1;"
         offset="1"
         id="stop3884" />
    </linearGradient>
    <clipPath
       id="clipPath-428684738">
      <g
         transform="translate(0,-1004.3622)"
         id="g12-5">
        <path
           style="fill:#1890d0"
           inkscape:connector-curvature="0"
           d="m -24,13 c 0,1.105 -0.672,2 -1.5,2 -0.828,0 -1.5,-0.895 -1.5,-2 0,-1.105 0.672,-2 1.5,-2 0.828,0 1.5,0.895 1.5,2 z"
           transform="matrix(15.333333,0,0,11.5,414.99999,878.8622)"
           id="path14-9" />
      </g>
    </clipPath>
    <linearGradient
       inkscape:collect="always"
       xlink:href="#linearGradient3880"
       id="linearGradient3886"
       x1="1"
       y1="24"
       x2="47"
       y2="24"
       gradientUnits="userSpaceOnUse" />
    <linearGradient
       inkscape:collect="always"
       xlink:href="#linearGradient3880"
       id="linearGradient3888"
       gradientUnits="userSpaceOnUse"
       x1="1"
       y1="24"
       x2="47"
       y2="24" />
  </defs>
  <g
     id="g21">
    <path
       d="m 36.31 5 c 5.859 4.062 9.688 10.831 9.688 18.5 c 0 12.426 -10.07 22.5 -22.5 22.5 c -7.669 0 -14.438 -3.828 -18.5 -9.688 c 1.037 1.822 2.306 3.499 3.781 4.969 c 4.085 3.712 9.514 5.969 15.469 5.969 c 12.703 0 23 -10.298 23 -23 c 0 -5.954 -2.256 -11.384 -5.969 -15.469 c -1.469 -1.475 -3.147 -2.744 -4.969 -3.781 z m 4.969 3.781 c 3.854 4.113 6.219 9.637 6.219 15.719 c 0 12.703 -10.297 23 -23 23 c -6.081 0 -11.606 -2.364 -15.719 -6.219 c 4.16 4.144 9.883 6.719 16.219 6.719 c 12.703 0 23 -10.298 23 -23 c 0 -6.335 -2.575 -12.06 -6.719 -16.219 z"
       opacity="0.05"
       id="path23" />
    <path
       d="m 41.28 8.781 c 3.712 4.085 5.969 9.514 5.969 15.469 c 0 12.703 -10.297 23 -23 23 c -5.954 0 -11.384 -2.256 -15.469 -5.969 c 4.113 3.854 9.637 6.219 15.719 6.219 c 12.703 0 23 -10.298 23 -23 c 0 -6.081 -2.364 -11.606 -6.219 -15.719 z"
       opacity="0.1"
       id="path25" />
    <path
       d="m 31.25 2.375 c 8.615 3.154 14.75 11.417 14.75 21.13 c 0 12.426 -10.07 22.5 -22.5 22.5 c -9.708 0 -17.971 -6.135 -21.12 -14.75 a 23 23 0 0 0 44.875 -7 a 23 23 0 0 0 -16 -21.875 z"
       opacity="0.2"
       id="path27" />
  </g>
  <g
     id="g29"
     style="fill:url(#linearGradient3886);fill-opacity:1"
     transform="matrix(0,-1,1,0,0,48)">
    <path
       d="M 24,1 C 36.703,1 47,11.297 47,24 47,36.703 36.703,47 24,47 11.297,47 1,36.703 1,24 1,11.297 11.297,1 24,1 z"
       id="path31"
       style="fill:url(#linearGradient3888);fill-opacity:1"
       inkscape:connector-curvature="0" />
  </g>
  <g
     id="g33" />
  <g
     id="g59">
    <path
       d="m 40.03 7.531 c 3.712 4.084 5.969 9.514 5.969 15.469 0 12.703 -10.297 23 -23 23 c -5.954 0 -11.384 -2.256 -15.469 -5.969 4.178 4.291 10.01 6.969 16.469 6.969 c 12.703 0 23 -10.298 23 -23 0 -6.462 -2.677 -12.291 -6.969 -16.469 z"
       opacity="0.1"
       id="path61" />
  </g>
  <g
     id="g35">
    <g
       clip-path="url(#clipPath-428684738)"
       id="g37">
      <g
         transform="translate(1,1)"
         id="g39">
        <g
           style="opacity:0.1"
           id="g41">
          <!-- color: #7373a1 -->
          <g
             id="g43">
            <path
               style="fill:#000000;fill-opacity:1;fill-rule:nonzero;stroke:none"
               inkscape:connector-curvature="0"
               d="m 13,15 22,0 0,9 -22,0 m 0,-9"
               id="path45" />
            <path
               style="fill:#000000;fill-opacity:1;fill-rule:nonzero;stroke:none"
               inkscape:connector-curvature="0"
               d="M 16,16.25 C 16,15.125 16,14 17.273,14 l 4.453,0 c 1.273,0 1.273,1.121 1.273,2.25 m -7,0"
               id="path47" />
            <path
               style="fill:#000000;fill-opacity:1;fill-rule:nonzero;stroke:none"
               inkscape:connector-curvature="0"
               d="m 15,16 17,0 0,12 -17,0 m 0,-12"
               id="path49" />
            <path
               style="fill:#000000;fill-opacity:1;fill-rule:nonzero;stroke:none"
               inkscape:connector-curvature="0"
               d="m 16,17 18,0 0,4 -18,0 m 0,-4"
               id="path51" />
            <path
               style="fill:#000000;fill-opacity:1;fill-rule:nonzero;stroke:none"
               inkscape:connector-curvature="0"
               d="m 17,18 16,0 0,12 -16,0 m 0,-12"
               id="path53" />
            <path
               style="fill:#000000;fill-opacity:1;fill-rule:nonzero;stroke:none"
               inkscape:connector-curvature="0"
               d="m 11,19 26,0 -2,14 -22,0 M 11,19"
               id="path55" />
            <path
               style="fill:#000000;fill-opacity:1;fill-rule:nonzero;stroke:none"
               inkscape:connector-curvature="0"
               d="m 20.523,21 c -0.516,0 -1.016,0.07 -1.492,0.191 0,-0.008 0,-0.012 0,-0.02 -0.531,0.137 -0.934,0.32 -1.012,0.355 0,0.012 0,0.023 0,0.035 -0.004,0 -0.012,0.004 -0.02,0.008 0.055,0.434 0.133,0.863 0.172,1.059 0.422,1.785 1.641,3.258 3.254,4.04 -0.008,0.121 -0.02,0.238 -0.02,0.363 0,1.648 0.664,3.141 1.73,4.23 -0.008,0.004 0.008,0.008 0,0.012 0.309,0.289 0.727,0.625 0.813,0.691 0.023,0.012 0.059,0.023 0.07,0.039 0.355,-0.313 0.672,-0.652 0.754,-0.742 1.066,-1.09 1.73,-2.582 1.73,-4.23 0,-0.113 -0.02,-0.223 -0.023,-0.336 1.641,-0.758 2.879,-2.23 3.32,-4.02 -0.008,-0.004 0.004,-0.008 0,-0.012 0.109,-0.48 0.188,-1 0.188,-1.055 -0.008,-0.004 -0.02,-0.008 -0.027,-0.012 0,-0.027 0,0.004 0,-0.023 -0.227,-0.102 -0.742,-0.277 -1.016,-0.367 0,0.02 0,-0.008 0,0.012 -0.496,-0.133 -1.02,-0.215 -1.551,-0.215 -1.285,0 -2.473,0.414 -3.449,1.105 -0.375,0.285 -0.645,0.527 -0.816,0.691 -0.02,0.02 -0.031,0.043 -0.051,0.063 -0.563,0.586 -1,1.285 -1.293,2.059 0.316,0.188 0.629,0.344 0.91,0.477 0.234,-0.68 0.621,-1.293 1.109,-1.809 0.004,-0.008 0.02,-0.027 0.031,-0.039 0.023,-0.027 0.047,-0.059 0.082,-0.09 0.008,-0.012 0.02,-0.012 0.031,-0.023 0.348,-0.305 0.621,-0.504 0.824,-0.637 0.102,-0.063 0.207,-0.125 0.313,-0.18 0.691,-0.367 1.469,-0.578 2.309,-0.578 0.5,0 0.988,0.074 1.445,0.215 -0.305,1.461 -1.238,2.68 -2.516,3.363 -0.199,-0.844 -0.57,-1.629 -1.086,-2.293 -0.43,0.301 -0.797,0.605 -0.824,0.629 0.422,0.539 0.734,1.168 0.906,1.855 0,0 0.02,0.07 0.051,0.203 0.012,0.063 0.023,0.102 0.047,0.227 0.063,0.313 0.055,0.672 0.051,0.816 0,0.027 0,0.102 0,0.102 l -0.012,0.016 c -0.039,1.352 -0.609,2.563 -1.512,3.438 -0.934,-0.902 -1.52,-2.168 -1.523,-3.578 0.5,0.137 1.023,0.215 1.563,0.215 0.293,0 0.586,-0.031 0.867,-0.074 0.016,-0.102 0.023,-0.219 0.031,-0.395 0.012,-0.313 -0.027,-0.527 -0.059,-0.648 -0.273,0.047 -0.555,0.07 -0.836,0.07 -0.504,0 -0.992,-0.074 -1.453,-0.211 -0.363,-0.074 -0.707,-0.254 -0.957,-0.41 -0.141,-0.086 -0.234,-0.148 -0.285,-0.18 -1.098,-0.711 -1.906,-1.832 -2.176,-3.164 0.441,-0.129 0.906,-0.203 1.391,-0.203 0.707,0 1.371,0.148 1.977,0.418 0.297,-0.281 0.656,-0.563 0.859,-0.719 -0.844,-0.461 -1.809,-0.73 -2.836,-0.73 m 0.008,0.004"
               id="path57-2" />
          </g>
        </g>
      </g>
    </g>
  </g>
  <path
     style="fill:#ea8e36;fill-opacity:1;fill-rule:nonzero;stroke:none"
     inkscape:connector-curvature="0"
     id="path65"
     d="m 13,15 22,0 0,9 -22,0 m 0,-9" />
  <path
     style="fill:#ea8e36;fill-opacity:1;fill-rule:nonzero;stroke:none"
     inkscape:connector-curvature="0"
     id="path67"
     d="M 16,16.25 C 16,15.125 16,14 17.273,14 l 4.453,0 c 1.273,0 1.273,1.121 1.273,2.25 m -7,0" />
  <path
     style="fill:#d6d6d7;fill-opacity:1;fill-rule:nonzero;stroke:none"
     inkscape:connector-curvature="0"
     id="path69"
     d="m 15,16 17,0 0,12 -17,0 m 0,-12" />
  <path
     style="fill:#95959c;fill-opacity:1;fill-rule:nonzero;stroke:none"
     inkscape:connector-curvature="0"
     id="path71"
     d="m 16,17 18,0 0,4 -18,0 m 0,-4" />
  <path
     style="fill:#f9f9f9;fill-opacity:1;fill-rule:nonzero;stroke:none"
     inkscape:connector-curvature="0"
     id="path73"
     d="m 17,18 16,0 0,12 -16,0 m 0,-12" />
  <path
     style="fill:#f2b962;fill-opacity:1;fill-rule:nonzero;stroke:none"
     inkscape:connector-curvature="0"
     id="path75"
     d="m 11,19 26,0 -2,14 -22,0 M 11,19" />
  <path
     style="fill:#000000;fill-opacity:0.32941177;fill-rule:nonzero;stroke:none"
     d="m 27.75,20 c -1.238,0 -2.25,1.008 -2.25,2.25 0,0.093 0.01925,0.19125 0.03125,0.28125 L 21.8125,24.375 C 21.4025,23.98 20.859,23.75 20.25,23.75 19.016,23.75 18,24.758 18,26 c 0,1.238 1.012,2.25 2.25,2.25 0.613,0 1.1565,-0.23 1.5625,-0.625 l 3.71875,1.84375 C 25.52025,29.55875 25.5,29.656 25.5,29.75 25.5,30.988 26.508,32 27.75,32 28.988,32 30,30.992 30,29.75 30,28.512 28.992,27.5 27.75,27.5 c -0.606,0 -1.1565,0.234 -1.5625,0.625 L 22.46875,26.28125 C 22.47175,26.19125 22.5,26.094 22.5,26 c 0,-0.093 -0.01925,-0.19125 -0.03125,-0.28125 L 26.1875,23.875 C 26.5945,24.266 27.145,24.5 27.75,24.5 28.988,24.5 30,23.492 30,22.25 30,21.012 28.992,20 27.75,20 z"
     id="path57"
     inkscape:connector-curvature="0"
     sodipodi:nodetypes="ssccsssccssssccsccsss" />
</svg>
